X:1
T:Jingle Jumble
T:Jingle Jumble
T:Mariah Carey, Walter Afanasieff, Jim Boothe, Joe Beal, Jose Feliciano, Wham!, Irving Berlin, Buck Ram, Walter Kent
C:Mariah Carey, Walter Afanasieff, Jim Boothe, Joe Beal, Jose Feliciano, George Michael, Irving Berlin, Buck Ram, and Walter Kent
%%score [ ( 1 2 ) ( 3 4 ) 5 6 ]
L:1/8
M:4/4
K:C
V:1 treble nm="Soprano" snm="S."
V:2 treble 
V:3 treble nm="Alto" snm="A."
V:4 treble 
V:5 treble-8 nm="Tenor" snm="T."
V:6 bass nm="Bass" snm="B."
V:1
!ff! G3 G2 (F3 | (((F8) |[K:Bb] (G8))) | G4) z4 | z8 | z8 | z8 | z8 | z2 .D2 .D2 z2 | z2 d2 ed z2 | %10
w: ||||||||Bum bum|I'm dream- in'|
 z2 E2 E2 z2 | E2 EF z4 | z2 E2 E2 z2 | E2 EE z4 | z2 e2 d2 c2 | B2 z2 z (f3 | (f8) | f2) z4 (b2 | %18
w: ||||I used to|know Ahh||* Ahh|
 (b8) | (b8) | !fermata!b4) z4 | z8 | z8 | z8 | z8 |] %25
w: Ahh|||||||
V:2
 F3 F2 (C3 | (C8) |[K:Bb] (D8) | D4) z4 | x8 | x8 | x8 | x8 | x8 | .D2 !tenuto!D.D z4 | %10
w: Last Christ- mas|||||||||Bum ba- dum|
 z2 .E2 .E2 z2 | .E2 !tenuto!E.F z4 | z2 .E2 .E2 z2 | .E2 !tenuto!E.E z4 | z2 .D2 .D2 z2 | %15
w: Bum bum|Bum ba- dum|Bum bum|Bum ba- dum|Bum bum|
 .D2 !tenuto!D.D z4 | d8 | d6 z2 | (B8 | (G3) (F) (G3) (F) | !fermata!G4) z4 | x8 | x8 | x8 | x8 |] %25
w: Bum ba- dum|Ahh||Ahh|||||||
V:3
!mp! d3 d2 (c3 | (c8) |[K:Bb] (d8) | d4) z4 | z2 .F2 .F2 z2 | .F2 !tenuto!F.F z4 | z2 .F2 .F2 z2 | %7
w: ||||Bum bum|Bum ba- dum|Bum bum|
 .F2 !tenuto!F.F z4 | z2 .F2 .F2 z2 | .F2 !tenuto!F.F z4 | z2 .G2 .G2 z2 | .G2 !tenuto!G.A z4 | %12
w: Bum ba- dum|Bum bum|Bum ba- dum|Bum bum|Bum ba- dum|
 z2 .G2 .G2 z2 | .G2 !tenuto!G.G z4 | z2 .F2 .F2 z2 | .G2 !tenuto!F.F z4 | (B8 | ^G6) z2 | %18
w: Bum bum|Bum ba- dum|Bum bum|Bum ba- dum|Ahh||
 (d2 (c2) (B2) (c2) | (c3) (B) (c3) (B) | !fermata!c4) z4 | z8 | z8 | z8 | z8 |] %25
w: Ahh * * *|||||||
V:4
 _B3 B2 (A3 | A8) |[K:Bb] x8 | x8 | x8 | x8 | x8 | x8 | x8 | x8 | x8 | x8 | x8 | x8 | x8 | x8 | %16
w: Last Christ- mas||||||||||||||||
 x8 | x8 | x8 | x8 | x8 | x8 | x8 | x8 | x8 |] %25
w: |||||||||
V:5
!mp! A3 c2 (A3 | (A8) |[K:Bb] (B8) | B4) z F=EF | B,2 z2 z4 | z4 z F=EF | B,2 z2 z4 | z8 | %8
w: Last Christ- mas|||* Ba- dum ba-|dum|Ba- dum ba-|dum||
 z2 .B,2 .B,2 z2 | .B,2 !tenuto!B,.B, z4 | z2 .B,2 .B,2 z2 | .B,2 !tenuto!B,.C z4 | z2 .C2 .C2 z2 | %13
w: Bum bum|Bum ba- dum|Bum bum|Bum ba- dum|Bum bum|
 .C2 !tenuto!C.C z4 | z2 .B,2 .B,2 z2 | .B,2 !tenuto!B,.B, z4 | (f8 | f6) z2 | (g8 | %19
w: Bum ba- dum|Bum bum|Bum ba- dum|Ahh||Ahh|
 (e3) (d) (e3) (d) | !fermata!e4) z4 | z8 | z8 | z8 | z8 |] %25
w: ||||||
V:6
!mp! F,3 F,2 (F,3 | (F,8) |[K:Bb] (G,8) | G,4) z4 | z8 | z8 | z8 | z6 (C,2 | D,6) z2 | %9
w: Last Christ- mas|||||||I'm||
 E,D, z2 z ^C,D,(E, | E,2) z4 z =E,- | E,(F, F,6) | G,4 A,2 B,(C | C2) B,2 A,2 (G,2 | F,8) | %15
w: dream- in' of a white|* Christ|* mas *|Just like the ones|I used to know||
 z4 z DD(D | B,)B,B,(B, F,)F,F,(F, | D,2) D, F,2 D,B,,(B, | (B,4) (G,) (E,2) (C,) | C,4) z4 | %20
w: may your days|* may your days * may your days|* be mer- ry and bright|||
 z4 B,,2 C,(D, | D,4) z2 D,2 | (G,(F,/)(G,/) (A,) (A,2) (A,)(G,)(F,) | F,4) z2 F,2 | B,8 |] %25
w: and may all|* your|Christ- * * mas * * * *|es be|white|

